images/icons/stones-floor.svg

<svg height="32pt" viewBox="0 0 32 32" width="32pt" xmlns="http://www.w3.org/2000/svg"><g fill="#fff"><path d="m6.667969 27.730469c.191406-.289063.464843-1.015625.609375-1.613281.144531-.597657-.074219-1.476563-.488282-1.949219l-1.664062-1.917969c-.410156-.472656-1.257812-.925781-1.878906-1.007812l-2.113282-.277344c-.625-.078125-1.132812.367187-1.132812.996094v5.136718c0 .628906.515625 1.144532 1.140625 1.144532l4.042969.011718c.628906.003906 1.296875-.234375 1.484375-.523437zm0 0"/><path d="m1.136719 20.21875.605469.058594c.625.0625 1.363281-.347656 1.644531-.910156l.117187-.238282c.28125-.5625.28125-1.367187.003906-1.789062-.28125-.421875-.9375-.71875-1.460937-.660156-.523437.058593-1.199219.339843-1.5.625-.300781.285156-.546875 1.03125-.546875 1.660156 0 .625.511719 1.191406 1.136719 1.253906zm0 0"/><path d="m4.539062 20.648438c.425782.144531 1.070313.679687 1.433594 1.1875l1.410156 1.976562c.363282.511719 1.171876.855469 1.792969.761719l1.328125-.199219c.621094-.089844 1.203125-.675781 1.292969-1.296875l.363281-2.484375c.089844-.621094-.289062-1.378906-.835937-1.683594l-2.339844-1.289062c-.546875-.300782-1.472656-.347656-2.046875-.101563l-.738281.316407c-.578125.246093-1.332031.878906-1.675781 1.402343l-.128907.195313c-.34375.527344-.277343 1.074218.144531 1.214844zm0 0"/><path d="m8.316406 28.242188h5.539063c.628906 0 .792969-.375.363281-.835938l-1.722656-1.839844c-.429688-.460937-1.285156-.738281-1.902344-.625l-1 .1875c-.617188.117188-1.332031.683594-1.585938 1.253906l-.367187.816407c-.257813.570312.046875 1.042969.675781 1.042969zm0 0"/><path d="m6.035156 12.199219-1.734375-.136719c-.625-.050781-1.320312.324219-1.542969.835938-.226562.507812-.105468 1.34375.261719 1.851562l.082031.113281c.367188.507813.878907 1.292969 1.132813 1.746094.257813.449219.945313.632813 1.53125.40625l.710937-.277344c.585938-.230469 1.363282-.792969 1.730469-1.253906.367188-.460937.367188-1.253906 0-1.765625l-.363281-.503906c-.367188-.507813-1.179688-.964844-1.808594-1.015625zm0 0"/><path d="m.527344 16.554688c.289062-.285157.929687-.582032 1.417968-.660157.492188-.078125.628907-.582031.304688-1.121093l-.242188-.398438c-.324218-.539062-.910156-1.027344-1.296874-1.085938-.390626-.058593-.710938.40625-.710938 1.035157v1.605469c0 .628906.238281.910156.527344.625zm0 0"/><path d="m.710938 12.363281c.386718.078125.964843-.179687 1.277343-.570312.3125-.394531 1.078125-.671875 1.703125-.617188l1.859375.160157c.625.054687 1.335938-.375 1.574219-.957032l.707031-1.707031c.242188-.578125-.03125-1.265625-.605469-1.523437l-2.050781-.917969c-.570312-.257813-1.476562-.195313-2.007812.140625l-.78125.492187c-.53125.335938-1.285157.402344-1.675781.148438-.390626-.257813-.710938.046875-.710938.675781v3.390625c0 .628906.320312 1.207031.710938 1.285156zm0 0"/><path d="m10.785156 14.8125c-.625-.0625-1.449218.269531-1.828125.734375-.378906.464844-.230469 1.085937.324219 1.375l3.105469 1.621094c.554687.289062 1.152343.871093 1.324219 1.292969.171874.421874.808593.625 1.410156.449218l2.308594-.679687c.601562-.175781.789062-.734375.414062-1.238281l-1.597656-2.160157c-.375-.503906-1.191406-.96875-1.816406-1.03125zm0 0"/><path d="m16.949219 28.253906 1.730469-.007812c.628906-.003906 1.507812-.367188 1.957031-.804688l1.453125-1.433594c.445312-.441406.484375-1.195312.082031-1.675781l-2.914063-3.492187c-.402343-.484375-1.230468-.75-1.839843-.589844l-3.542969.921875c-.609375.160156-1.183594.796875-1.28125 1.417969l-.097656.632812c-.09375.621094.167968 1.511719.585937 1.980469l1.96875 2.203125c.414063.46875 1.273438.847656 1.898438.847656zm0 0"/><path d="m25.074219 25.605469-.285157-.042969c-.617187-.097656-1.484374.191406-1.921874.644531l-1.175782 1.214844c-.4375.449219-.28125.820313.347656.820313h3.410157c.628906 0 1.140625-.152344 1.140625-.339844s-.085938-.742188-.195313-1.230469c-.105469-.492187-.703125-.972656-1.320312-1.066406zm0 0"/><path d="m19.679688 20.425781c.277343.414063.910156.429688 1.402343.042969l1.328125-1.046875c.496094-.390625.5-1.03125.011719-1.429687l-.863281-.699219c-.488282-.398438-1.34375-.488281-1.90625-.207031l-.105469.054687c-.5625.28125-.820313.832031-.574219 1.21875.242188.390625.390625.847656.324219 1.015625-.070313.164062.105469.640625.382813 1.050781zm0 0"/><path d="m24.589844 24.753906.476562.09375c.613282.117188 1.492188.097656 1.949219-.046875s.808594-.777343.777344-1.402343l-.050781-1.082032c-.03125-.628906-.519532-1.363281-1.085938-1.636718l-1.882812-.902344c-.566407-.269532-1.429688-.171875-1.921876.222656l-1.066406.855469c-.488281.390625-.554687 1.101562-.140625 1.574219l1.078125 1.246093c.410156.472657 1.253906.960938 1.867188 1.078125zm0 0"/><path d="m30.828125 20.132812-1.398437.585938c-.578126.253906-1.027344.96875-.972657 1.59375l.15625 1.9375c.054688.625-.382812 1.234375-.957031 1.351562-.574219.117188-.875.699219-.671875 1.292969l.113281.320313c.207032.59375.886719 1.070312 1.515625 1.066406l2.117188-.027344c.628906-.007812 1.238281-.527344 1.238281-1.15625v-6.277344c0-.628906-.566406-.9375-1.140625-.6875zm0 0"/><path d="m30.769531 15.390625-2.214843-.5625c-.609376-.160156-1.546876.011719-2.054688.375l-1.1875.847656c-.511719.363281-1.011719 1.148438-1.101562 1.742188-.09375.59375.304687 1.277343.886718 1.515625l1.695313.699218c.578125.238282 1.53125.246094 2.117187.011719l1.90625-.722656c.582032-.234375 1.152344-.9375 1.152344-1.5625v-.910156c0-.628907-.589844-1.273438-1.199219-1.433594zm0 0"/><path d="m25.347656 14.761719c.527344-.339844.460938-.738281-.148437-.886719l-2.566407-.632812c-.609374-.148438-1.519531.039062-2.019531.414062l-2.476562 1.871094c-.5.378906-.824219.921875-.714844 1.207031.105469.285156.65625.300781 1.226563.035156l1.234374-.570312c.566407-.265625 1.171876-.378907 1.335938-.25.167969.128906.707031.511719 1.199219.855469.488281.34375.988281.257812 1.109375-.195313.117187-.453125.648437-1.097656 1.179687-1.4375zm0 0"/><path d="m30.757812 10.300781-4.300781-.925781c-.613281-.132812-1.382812.210938-1.679687.765625l-.917969 1.679687c-.296875.554688-.046875 1.125.566406 1.269532l1.824219.4375c.613281.144531 1.601562.410156 2.203125.59375l2.328125.675781c.601562.179687 1.1875-.183594 1.1875-.8125v-2.300781c0-.628906-.597656-1.25-1.210938-1.382813zm0 0"/><path d="m22.308594 11.40625-.234375-.835938c-.167969-.601562-.777344-1.308593-1.351563-1.5625l-1.601562-.710937c-.574219-.257813-1.507813-.246094-2.074219.023437l-.691406.324219c-.570313.269531-.992188 1-.941407 1.625l.058594.722657c.050782.625.585938.996093 1.1875.820312l.5625-.167969c.605469-.175781 1.59375-.179687 2.199219-.015625l2.09375.574219c.609375.167969.964844-.191406.792969-.796875zm0 0"/><path d="m17.359375 12.34375-.714844.25c-.59375.207031-1.078125.730469-1.078125 1.160156 0 .433594.230469 1.011719.515625 1.285156.285157.273438.914063.171876 1.402344-.226562l1.929687-1.582031c.488282-.398438.464844-.84375-.046874-.992188-.511719-.148437-1.414063-.097656-2.007813.105469zm0 0"/><path d="m13.890625 11.363281-4.515625 1.160157c-.609375.15625-.832031.546874-.5.863281.335938.320312 1.121094.640625 1.746094.707031l2.835937.320312c.625.070313 1.195313-.386718 1.269531-1.007812l.136719-1.195312c.074219-.621094-.363281-1.003907-.972656-.847657zm0 0"/><path d="m14.207031 7.835938c-.144531-.609376-.769531-1.1875-1.390625-1.28125l-2.039062-.304688c-.621094-.089844-1.316406.3125-1.542969.894531l-1.28125 3.296875c-.226563.585938-.300781 1.203125-.160156 1.375s.746093.167969 1.347656-.007812l4.519531-1.320313c.601563-.175781.976563-.820312.832032-1.429687zm0 0"/><path d="m.628906 6.351562c.316406.183594 1.007813.0625 1.539063-.269531l.761719-.480469c.53125-.332031 1.257812-.53125 1.609374-.4375.355469.097657.792969-.195312.972657-.648437.179687-.453125-.1875-.824219-.816407-.824219h-3.554687c-.625 0-1.1289062.515625-1.1132812 1.140625v.035157c.015625.628906.2851562 1.296874.6015622 1.484374zm0 0"/><path d="m6.699219 6.171875.28125.105469c.585937.226562 1.316406.074218 1.621093-.335938.308594-.414062 1.0625-.652344 1.679688-.53125l.675781.132813c.617188.121093 1.03125-.246094.921875-.816407-.113281-.570312-.71875-1.035156-1.347656-1.035156h-2.78125c-.628906 0-1.359375.464844-1.628906 1.035156-.269532.570313-.007813 1.21875.578125 1.445313zm0 0"/><path d="m13.464844 3.691406c-.628906 0-1 .496094-.832032 1.097656l.027344.089844c.171875.601563.667969 1.097656 1.101563 1.097656.433593 0 .890625.488282 1.015625 1.085938.121094.597656.6875.875 1.257812.609375l1.089844-.503906c.570312-.261719 1.472656-.210938 2.007812.117187l.789063.484375c.535156.328125 1.097656.097657 1.25-.511719l.605469-2.457031c.152344-.609375-.238282-1.109375-.867188-1.109375zm0 0"/><path d="m23.875 8.6875-.324219.097656c-.601562.175782-.992187.8125-.871093 1.414063.125.601562.519531.671875.882812.160156l.75-1.058594c.359375-.515625.164062-.789062-.4375-.613281zm0 0"/><path d="m24.546875 7.703125c.613281-.144531 1.183594-.054687 1.273437.199219.089844.253906.515626.59375.941407.75.429687.15625.816406-.226563.855469-.855469l.195312-2.964844c.042969-.628906-.4375-1.140625-1.066406-1.140625h-2.703125c-.625 0-1.265625.5-1.421875 1.105469 0 0-.863282 3.390625-.863282 3.570313zm0 0"/><path d="m30.636719 3.691406h-.550781c-.628907 0-1.183594.511719-1.238282 1.136719l-.257812 3.140625c-.050782.625.414062 1.222656 1.035156 1.324219l1.125.171875c.617188.101562 1.222656-.328125 1.222656-.957032v-3.675781c-.003906-.625-.707031-1.140625-1.335937-1.140625zm0 0"/></g></svg>

<?xml version="1.0" encoding="UTF-8"?>
<svg xmlns="http://www.w3.org/2000/svg" xmlns:xlink="http://www.w3.org/1999/xlink" width="32pt" height="32pt" viewBox="0 0 32 32" version="1.1">
<g id="surface1">
<path style=" stroke:none;fill-rule:nonzero;fill:rgb(255%,255%,255%);fill-opacity:1;" d="M 6.667969 27.730469 C 6.859375 27.441406 7.132812 26.714844 7.277344 26.117188 C 7.421875 25.519531 7.203125 24.640625 6.789062 24.167969 L 5.125 22.25 C 4.714844 21.777344 3.867188 21.324219 3.246094 21.242188 L 1.132812 20.964844 C 0.507812 20.886719 0 21.332031 0 21.960938 L 0 27.097656 C 0 27.726562 0.515625 28.242188 1.140625 28.242188 L 5.183594 28.253906 C 5.8125 28.257812 6.480469 28.019531 6.667969 27.730469 Z M 6.667969 27.730469 "/>
<path style=" stroke:none;fill-rule:nonzero;fill:rgb(255%,255%,255%);fill-opacity:1;" d="M 1.136719 20.21875 L 1.742188 20.277344 C 2.367188 20.339844 3.105469 19.929688 3.386719 19.367188 L 3.503906 19.128906 C 3.785156 18.566406 3.785156 17.761719 3.507812 17.339844 C 3.226562 16.917969 2.570312 16.621094 2.046875 16.679688 C 1.523438 16.738281 0.847656 17.019531 0.546875 17.304688 C 0.246094 17.589844 0 18.335938 0 18.964844 C 0 19.589844 0.511719 20.15625 1.136719 20.21875 Z M 1.136719 20.21875 "/>
<path style=" stroke:none;fill-rule:nonzero;fill:rgb(255%,255%,255%);fill-opacity:1;" d="M 4.539062 20.648438 C 4.964844 20.792969 5.609375 21.328125 5.972656 21.835938 L 7.382812 23.8125 C 7.746094 24.324219 8.554688 24.667969 9.175781 24.574219 L 10.503906 24.375 C 11.125 24.285156 11.707031 23.699219 11.796875 23.078125 L 12.160156 20.59375 C 12.25 19.972656 11.871094 19.214844 11.324219 18.910156 L 8.984375 17.621094 C 8.4375 17.320312 7.511719 17.273438 6.9375 17.519531 L 6.199219 17.835938 C 5.621094 18.082031 4.867188 18.714844 4.523438 19.238281 L 4.394531 19.433594 C 4.050781 19.960938 4.117188 20.507812 4.539062 20.648438 Z M 4.539062 20.648438 "/>
<path style=" stroke:none;fill-rule:nonzero;fill:rgb(255%,255%,255%);fill-opacity:1;" d="M 8.316406 28.242188 L 13.855469 28.242188 C 14.484375 28.242188 14.648438 27.867188 14.21875 27.40625 L 12.496094 25.566406 C 12.066406 25.105469 11.210938 24.828125 10.59375 24.941406 L 9.59375 25.128906 C 8.976562 25.246094 8.261719 25.8125 8.007812 26.382812 L 7.640625 27.199219 C 7.382812 27.769531 7.6875 28.242188 8.316406 28.242188 Z M 8.316406 28.242188 "/>
<path style=" stroke:none;fill-rule:nonzero;fill:rgb(255%,255%,255%);fill-opacity:1;" d="M 6.035156 12.199219 L 4.300781 12.0625 C 3.675781 12.011719 2.980469 12.386719 2.757812 12.898438 C 2.53125 13.40625 2.652344 14.242188 3.019531 14.75 L 3.101562 14.863281 C 3.46875 15.371094 3.980469 16.15625 4.234375 16.609375 C 4.492188 17.058594 5.179688 17.242188 5.765625 17.015625 L 6.476562 16.738281 C 7.0625 16.507812 7.839844 15.945312 8.207031 15.484375 C 8.574219 15.023438 8.574219 14.230469 8.207031 13.71875 L 7.84375 13.214844 C 7.476562 12.707031 6.664062 12.25 6.035156 12.199219 Z M 6.035156 12.199219 "/>
<path style=" stroke:none;fill-rule:nonzero;fill:rgb(255%,255%,255%);fill-opacity:1;" d="M 0.527344 16.554688 C 0.816406 16.269531 1.457031 15.972656 1.945312 15.894531 C 2.4375 15.816406 2.574219 15.3125 2.25 14.773438 L 2.007812 14.375 C 1.683594 13.835938 1.097656 13.347656 0.710938 13.289062 C 0.320312 13.230469 0 13.695312 0 14.324219 L 0 15.929688 C 0 16.558594 0.238281 16.839844 0.527344 16.554688 Z M 0.527344 16.554688 "/>
<path style=" stroke:none;fill-rule:nonzero;fill:rgb(255%,255%,255%);fill-opacity:1;" d="M 0.710938 12.363281 C 1.097656 12.441406 1.675781 12.183594 1.988281 11.792969 C 2.300781 11.398438 3.066406 11.121094 3.691406 11.175781 L 5.550781 11.335938 C 6.175781 11.390625 6.886719 10.960938 7.125 10.378906 L 7.832031 8.671875 C 8.074219 8.09375 7.800781 7.40625 7.226562 7.148438 L 5.175781 6.230469 C 4.605469 5.972656 3.699219 6.035156 3.167969 6.371094 L 2.386719 6.863281 C 1.855469 7.199219 1.101562 7.265625 0.710938 7.011719 C 0.320312 6.753906 0 7.058594 0 7.6875 L 0 11.078125 C 0 11.707031 0.320312 12.285156 0.710938 12.363281 Z M 0.710938 12.363281 "/>
<path style=" stroke:none;fill-rule:nonzero;fill:rgb(255%,255%,255%);fill-opacity:1;" d="M 10.785156 14.8125 C 10.160156 14.75 9.335938 15.082031 8.957031 15.546875 C 8.578125 16.011719 8.726562 16.632812 9.28125 16.921875 L 12.386719 18.542969 C 12.941406 18.832031 13.539062 19.414062 13.710938 19.835938 C 13.882812 20.257812 14.519531 20.460938 15.121094 20.285156 L 17.429688 19.605469 C 18.03125 19.429688 18.21875 18.871094 17.84375 18.367188 L 16.246094 16.207031 C 15.871094 15.703125 15.054688 15.238281 14.429688 15.175781 Z M 10.785156 14.8125 "/>
<path style=" stroke:none;fill-rule:nonzero;fill:rgb(255%,255%,255%);fill-opacity:1;" d="M 16.949219 28.253906 L 18.679688 28.246094 C 19.308594 28.242188 20.1875 27.878906 20.636719 27.441406 L 22.089844 26.007812 C 22.535156 25.566406 22.574219 24.8125 22.171875 24.332031 L 19.257812 20.839844 C 18.855469 20.355469 18.027344 20.089844 17.417969 20.25 L 13.875 21.171875 C 13.265625 21.332031 12.691406 21.96875 12.59375 22.589844 L 12.496094 23.222656 C 12.402344 23.84375 12.664062 24.734375 13.082031 25.203125 L 15.050781 27.40625 C 15.464844 27.875 16.324219 28.253906 16.949219 28.253906 Z M 16.949219 28.253906 "/>
<path style=" stroke:none;fill-rule:nonzero;fill:rgb(255%,255%,255%);fill-opacity:1;" d="M 25.074219 25.605469 L 24.789062 25.5625 C 24.171875 25.464844 23.304688 25.753906 22.867188 26.207031 L 21.691406 27.421875 C 21.253906 27.871094 21.410156 28.242188 22.039062 28.242188 L 25.449219 28.242188 C 26.078125 28.242188 26.589844 28.089844 26.589844 27.902344 C 26.589844 27.714844 26.503906 27.160156 26.394531 26.671875 C 26.289062 26.179688 25.691406 25.699219 25.074219 25.605469 Z M 25.074219 25.605469 "/>
<path style=" stroke:none;fill-rule:nonzero;fill:rgb(255%,255%,255%);fill-opacity:1;" d="M 19.679688 20.425781 C 19.957031 20.839844 20.589844 20.855469 21.082031 20.46875 L 22.410156 19.421875 C 22.90625 19.03125 22.910156 18.390625 22.421875 17.992188 L 21.558594 17.292969 C 21.070312 16.894531 20.214844 16.804688 19.652344 17.085938 L 19.546875 17.140625 C 18.984375 17.421875 18.726562 17.972656 18.972656 18.359375 C 19.214844 18.75 19.363281 19.207031 19.296875 19.375 C 19.226562 19.539062 19.402344 20.015625 19.679688 20.425781 Z M 19.679688 20.425781 "/>
<path style=" stroke:none;fill-rule:nonzero;fill:rgb(255%,255%,255%);fill-opacity:1;" d="M 24.589844 24.753906 L 25.066406 24.847656 C 25.679688 24.964844 26.558594 24.945312 27.015625 24.800781 C 27.472656 24.65625 27.824219 24.023438 27.792969 23.398438 L 27.742188 22.316406 C 27.710938 21.6875 27.222656 20.953125 26.65625 20.679688 L 24.773438 19.777344 C 24.207031 19.507812 23.34375 19.605469 22.851562 20 L 21.785156 20.855469 C 21.296875 21.246094 21.230469 21.957031 21.644531 22.429688 L 22.722656 23.675781 C 23.132812 24.148438 23.976562 24.636719 24.589844 24.753906 Z M 24.589844 24.753906 "/>
<path style=" stroke:none;fill-rule:nonzero;fill:rgb(255%,255%,255%);fill-opacity:1;" d="M 30.828125 20.132812 L 29.429688 20.71875 C 28.851562 20.972656 28.402344 21.6875 28.457031 22.3125 L 28.613281 24.25 C 28.667969 24.875 28.230469 25.484375 27.65625 25.601562 C 27.082031 25.71875 26.78125 26.300781 26.984375 26.894531 L 27.097656 27.214844 C 27.304688 27.808594 27.984375 28.285156 28.613281 28.28125 L 30.730469 28.253906 C 31.359375 28.246094 31.96875 27.726562 31.96875 27.097656 L 31.96875 20.820312 C 31.96875 20.191406 31.402344 19.882812 30.828125 20.132812 Z M 30.828125 20.132812 "/>
<path style=" stroke:none;fill-rule:nonzero;fill:rgb(255%,255%,255%);fill-opacity:1;" d="M 30.769531 15.390625 L 28.554688 14.828125 C 27.945312 14.667969 27.007812 14.839844 26.5 15.203125 L 25.3125 16.050781 C 24.800781 16.414062 24.300781 17.199219 24.210938 17.792969 C 24.117188 18.386719 24.515625 19.070312 25.097656 19.308594 L 26.792969 20.007812 C 27.371094 20.246094 28.324219 20.253906 28.910156 20.019531 L 30.816406 19.296875 C 31.398438 19.0625 31.96875 18.359375 31.96875 17.734375 L 31.96875 16.824219 C 31.96875 16.195312 31.378906 15.550781 30.769531 15.390625 Z M 30.769531 15.390625 "/>
<path style=" stroke:none;fill-rule:nonzero;fill:rgb(255%,255%,255%);fill-opacity:1;" d="M 25.347656 14.761719 C 25.875 14.421875 25.808594 14.023438 25.199219 13.875 L 22.632812 13.242188 C 22.023438 13.09375 21.113281 13.28125 20.613281 13.65625 L 18.136719 15.527344 C 17.636719 15.90625 17.3125 16.449219 17.421875 16.734375 C 17.527344 17.019531 18.078125 17.035156 18.648438 16.769531 L 19.882812 16.199219 C 20.449219 15.933594 21.054688 15.820312 21.21875 15.949219 C 21.386719 16.078125 21.925781 16.460938 22.417969 16.804688 C 22.90625 17.148438 23.40625 17.0625 23.527344 16.609375 C 23.644531 16.15625 24.175781 15.511719 24.707031 15.171875 Z M 25.347656 14.761719 "/>
<path style=" stroke:none;fill-rule:nonzero;fill:rgb(255%,255%,255%);fill-opacity:1;" d="M 30.757812 10.300781 L 26.457031 9.375 C 25.84375 9.242188 25.074219 9.585938 24.777344 10.140625 L 23.859375 11.820312 C 23.5625 12.375 23.8125 12.945312 24.425781 13.089844 L 26.25 13.527344 C 26.863281 13.671875 27.851562 13.9375 28.453125 14.121094 L 30.78125 14.796875 C 31.382812 14.976562 31.96875 14.613281 31.96875 13.984375 L 31.96875 11.683594 C 31.96875 11.054688 31.371094 10.433594 30.757812 10.300781 Z M 30.757812 10.300781 "/>
<path style=" stroke:none;fill-rule:nonzero;fill:rgb(255%,255%,255%);fill-opacity:1;" d="M 22.308594 11.40625 L 22.074219 10.570312 C 21.90625 9.96875 21.296875 9.261719 20.722656 9.007812 L 19.121094 8.296875 C 18.546875 8.039062 17.613281 8.050781 17.046875 8.320312 L 16.355469 8.644531 C 15.785156 8.914062 15.363281 9.644531 15.414062 10.269531 L 15.472656 10.992188 C 15.523438 11.617188 16.058594 11.988281 16.660156 11.8125 L 17.222656 11.644531 C 17.828125 11.46875 18.816406 11.464844 19.421875 11.628906 L 21.515625 12.203125 C 22.125 12.371094 22.480469 12.011719 22.308594 11.40625 Z M 22.308594 11.40625 "/>
<path style=" stroke:none;fill-rule:nonzero;fill:rgb(255%,255%,255%);fill-opacity:1;" d="M 17.359375 12.34375 L 16.644531 12.59375 C 16.050781 12.800781 15.566406 13.324219 15.566406 13.753906 C 15.566406 14.1875 15.796875 14.765625 16.082031 15.039062 C 16.367188 15.3125 16.996094 15.210938 17.484375 14.8125 L 19.414062 13.230469 C 19.902344 12.832031 19.878906 12.386719 19.367188 12.238281 C 18.855469 12.089844 17.953125 12.140625 17.359375 12.34375 Z M 17.359375 12.34375 "/>
<path style=" stroke:none;fill-rule:nonzero;fill:rgb(255%,255%,255%);fill-opacity:1;" d="M 13.890625 11.363281 L 9.375 12.523438 C 8.765625 12.679688 8.542969 13.070312 8.875 13.386719 C 9.210938 13.707031 9.996094 14.027344 10.621094 14.09375 L 13.457031 14.414062 C 14.082031 14.484375 14.652344 14.027344 14.726562 13.40625 L 14.863281 12.210938 C 14.9375 11.589844 14.5 11.207031 13.890625 11.363281 Z M 13.890625 11.363281 "/>
<path style=" stroke:none;fill-rule:nonzero;fill:rgb(255%,255%,255%);fill-opacity:1;" d="M 14.207031 7.835938 C 14.0625 7.226562 13.4375 6.648438 12.816406 6.554688 L 10.777344 6.25 C 10.15625 6.160156 9.460938 6.5625 9.234375 7.144531 L 7.953125 10.441406 C 7.726562 11.027344 7.652344 11.644531 7.792969 11.816406 C 7.933594 11.988281 8.539062 11.984375 9.140625 11.808594 L 13.660156 10.488281 C 14.261719 10.3125 14.636719 9.667969 14.492188 9.058594 Z M 14.207031 7.835938 "/>
<path style=" stroke:none;fill-rule:nonzero;fill:rgb(255%,255%,255%);fill-opacity:1;" d="M 0.628906 6.351562 C 0.945312 6.535156 1.636719 6.414062 2.167969 6.082031 L 2.929688 5.601562 C 3.460938 5.269531 4.1875 5.070312 4.539062 5.164062 C 4.894531 5.261719 5.332031 4.96875 5.511719 4.515625 C 5.691406 4.0625 5.324219 3.691406 4.695312 3.691406 L 1.140625 3.691406 C 0.515625 3.691406 0.0117188 4.207031 0.0273438 4.832031 L 0.0273438 4.867188 C 0.0429688 5.496094 0.3125 6.164062 0.628906 6.351562 Z M 0.628906 6.351562 "/>
<path style=" stroke:none;fill-rule:nonzero;fill:rgb(255%,255%,255%);fill-opacity:1;" d="M 6.699219 6.171875 L 6.980469 6.277344 C 7.566406 6.503906 8.296875 6.351562 8.601562 5.941406 C 8.910156 5.527344 9.664062 5.289062 10.28125 5.410156 L 10.957031 5.542969 C 11.574219 5.664062 11.988281 5.296875 11.878906 4.726562 C 11.765625 4.15625 11.160156 3.691406 10.53125 3.691406 L 7.75 3.691406 C 7.121094 3.691406 6.390625 4.15625 6.121094 4.726562 C 5.851562 5.296875 6.113281 5.945312 6.699219 6.171875 Z M 6.699219 6.171875 "/>
<path style=" stroke:none;fill-rule:nonzero;fill:rgb(255%,255%,255%);fill-opacity:1;" d="M 13.464844 3.691406 C 12.835938 3.691406 12.464844 4.1875 12.632812 4.789062 L 12.660156 4.878906 C 12.832031 5.480469 13.328125 5.976562 13.761719 5.976562 C 14.195312 5.976562 14.652344 6.464844 14.777344 7.0625 C 14.898438 7.660156 15.464844 7.9375 16.035156 7.671875 L 17.125 7.167969 C 17.695312 6.90625 18.597656 6.957031 19.132812 7.285156 L 19.921875 7.769531 C 20.457031 8.097656 21.019531 7.867188 21.171875 7.257812 L 21.777344 4.800781 C 21.929688 4.191406 21.539062 3.691406 20.910156 3.691406 Z M 13.464844 3.691406 "/>
<path style=" stroke:none;fill-rule:nonzero;fill:rgb(255%,255%,255%);fill-opacity:1;" d="M 23.875 8.6875 L 23.550781 8.785156 C 22.949219 8.960938 22.558594 9.597656 22.679688 10.199219 C 22.804688 10.800781 23.199219 10.871094 23.5625 10.359375 L 24.3125 9.300781 C 24.671875 8.785156 24.476562 8.511719 23.875 8.6875 Z M 23.875 8.6875 "/>
<path style=" stroke:none;fill-rule:nonzero;fill:rgb(255%,255%,255%);fill-opacity:1;" d="M 24.546875 7.703125 C 25.160156 7.558594 25.730469 7.648438 25.820312 7.902344 C 25.910156 8.15625 26.335938 8.496094 26.761719 8.652344 C 27.191406 8.808594 27.578125 8.425781 27.617188 7.796875 L 27.8125 4.832031 C 27.855469 4.203125 27.375 3.691406 26.746094 3.691406 L 24.042969 3.691406 C 23.417969 3.691406 22.777344 4.191406 22.621094 4.796875 C 22.621094 4.796875 21.757812 8.1875 21.757812 8.367188 Z M 24.546875 7.703125 "/>
<path style=" stroke:none;fill-rule:nonzero;fill:rgb(255%,255%,255%);fill-opacity:1;" d="M 30.636719 3.691406 L 30.085938 3.691406 C 29.457031 3.691406 28.902344 4.203125 28.847656 4.828125 L 28.589844 7.96875 C 28.539062 8.59375 29.003906 9.191406 29.625 9.292969 L 30.75 9.464844 C 31.367188 9.566406 31.972656 9.136719 31.972656 8.507812 L 31.972656 4.832031 C 31.96875 4.207031 31.265625 3.691406 30.636719 3.691406 Z M 30.636719 3.691406 "/>
</g>
</svg>
